public/piece/california/wP.svg

<?xml version="1.0" encoding="UTF-8"?>
<svg xmlns="http://www.w3.org/2000/svg" xmlns:xlink="http://www.w3.org/1999/xlink" width="100" height="100" viewBox="-50 -100 345.843 506.462" version="1.1">
<defs>
<clipPath id="clip1">
  <path d="M 0 0 L 255.84375 0 L 255.84375 376.460938 L 0 376.460938 Z M 0 0 "/>
</clipPath>
</defs>
<g id="surface1" transform="translate(0 -20)">
<path style=" stroke:none;fill-rule:nonzero;fill:rgb(80.000305%,80.000305%,80.000305%);fill-opacity:1;" d="M 239.523438 340.414062 C 239.523438 250.117188 165.070312 220.546875 173.609375 164.167969 C 195.230469 149.144531 209.210938 123.890625 208.496094 95.402344 C 207.417969 52.394531 172.324219 17.355469 129.316406 16.34375 C 83.59375 15.265625 46.195312 52.007812 46.195312 97.484375 C 46.195312 125.09375 59.992188 149.46875 81.058594 164.132812 C 90.621094 220.546875 16.320312 250.484375 16.320312 340.414062 C 49.273438 350.292969 70.652344 360.140625 128.484375 360.140625 C 186.316406 360.140625 206.570312 350.292969 239.523438 340.414062 "/>
<path style=" stroke:none;fill-rule:nonzero;fill:rgb(100%,100%,100%);fill-opacity:1;" d="M 126 30.414062 C 126 30.414062 101.085938 56.332031 100 94.414062 C 98.910156 132.496094 114 154.972656 114 160.414062 C 114 165.855469 114.441406 188.828125 109 208.414062 C 103.558594 228 73 297.414062 75 344.414062 C 76.394531 377.175781 19.425781 334.027344 19.425781 334.027344 L 27.039062 277.449219 L 83.617188 194.757812 L 79.265625 159.941406 L 45.535156 107.714844 L 65.121094 45.695312 Z M 126 30.414062 "/>
<g clip-path="url(#clip1)" clip-rule="nonzero">
<path style=" stroke:none;fill-rule:nonzero;fill:rgb(0%,0%,0%);fill-opacity:1;" d="M 239.523438 340.414062 L 239.53125 340.414062 Z M 33.136719 328.53125 C 33.757812 328.726562 34.375 328.925781 34.992188 329.117188 C 61.007812 337.332031 81.558594 343.820312 128.484375 343.820312 C 174.789062 343.820312 194.710938 337.472656 219.929688 329.433594 C 220.851562 329.140625 221.777344 328.84375 222.710938 328.546875 C 219.652344 292.101562 202.753906 267.496094 186.359375 243.628906 C 169.726562 219.414062 152.527344 194.371094 157.472656 161.722656 C 158.144531 157.289062 160.613281 153.324219 164.296875 150.765625 C 182.304688 138.25 192.730469 117.707031 192.179688 95.8125 C 191.328125 61.789062 162.957031 33.460938 128.933594 32.660156 C 111.28125 32.21875 94.648438 38.789062 82.054688 51.09375 C 69.453125 63.398438 62.515625 79.875 62.515625 97.484375 C 62.515625 118.683594 72.929688 138.59375 90.378906 150.734375 C 93.976562 153.238281 96.417969 157.085938 97.148438 161.402344 C 102.734375 194.359375 85.550781 219.703125 68.929688 244.210938 C 52.804688 267.996094 36.179688 292.511719 33.136719 328.53125 M 128.484375 376.460938 C 76.527344 376.460938 51.578125 368.585938 25.164062 360.246094 C 20.804688 358.867188 16.300781 357.445312 11.632812 356.046875 C 4.730469 353.976562 0 347.621094 0 340.414062 C 0 287.707031 23.242188 253.433594 41.914062 225.894531 C 56.996094 203.648438 66.105469 189.292969 65.578125 172.871094 C 43.089844 154.425781 29.875 126.78125 29.875 97.484375 C 29.875 71.011719 40.304688 46.242188 59.246094 27.742188 C 78.179688 9.246094 103.195312 -0.582031 129.699219 0.0273438 C 154.710938 0.613281 178.3125 10.753906 196.160156 28.574219 C 214.007812 46.398438 224.183594 69.984375 224.8125 94.992188 C 225.570312 125.234375 212.40625 153.753906 189.269531 172.769531 C 189.214844 190.128906 199.992188 205.820312 213.265625 225.148438 C 232.234375 252.769531 255.84375 287.136719 255.84375 340.414062 C 255.84375 347.621094 251.113281 353.976562 244.210938 356.046875 C 239.222656 357.542969 234.453125 359.0625 229.84375 360.53125 C 204.140625 368.726562 179.863281 376.460938 128.484375 376.460938 "/>
</g>
</g>
</svg>

<svg xmlns="http://www.w3.org/2000/svg" width="100" height="100" viewBox="-50 -100 345.843 506.462"><defs><clipPath id="a"><path d="M0 0h255.844v376.46H0Zm0 0"/></clipPath></defs><path d="M239.523 340.414c0-90.297-74.453-119.867-65.914-176.246 21.621-15.023 35.602-40.277 34.887-68.766-1.078-43.007-36.172-78.047-79.18-79.058-45.722-1.078-83.12 35.664-83.12 81.14 0 27.61 13.796 51.985 34.863 66.649 9.562 56.414-64.739 86.351-64.739 176.281 32.953 9.879 54.332 19.727 112.164 19.727s78.086-9.848 111.04-19.727" style="stroke:none;fill-rule:nonzero;fill:#ccc;fill-opacity:1" transform="translate(0 -20)"/><path d="M126 30.414s-24.914 25.918-26 64c-1.09 38.082 14 60.559 14 66 0 5.441.441 28.414-5 48s-36 89-34 136c1.395 32.762-55.574-10.387-55.574-10.387l7.613-56.578 56.578-82.691-4.351-34.817-33.73-52.226 19.585-62.02Zm0 0" style="stroke:none;fill-rule:nonzero;fill:#fff;fill-opacity:1" transform="translate(0 -20)"/><g clip-path="url(#a)" transform="translate(0 -20)"><path d="M239.523 340.414h.008ZM33.137 328.531c.62.196 1.238.395 1.855.586 26.016 8.215 46.567 14.703 93.492 14.703 46.305 0 66.227-6.347 91.446-14.386.922-.293 1.847-.59 2.78-.887-3.058-36.445-19.956-61.05-36.35-84.918-16.633-24.215-33.833-49.258-28.887-81.906a16.321 16.321 0 0 1 6.824-10.957c18.008-12.516 28.433-33.059 27.883-54.953-.852-34.024-29.223-62.352-63.246-63.153-17.653-.441-34.286 6.13-46.88 18.434-12.6 12.304-19.538 28.781-19.538 46.39 0 21.2 10.414 41.11 27.863 53.25a16.323 16.323 0 0 1 6.77 10.668c5.585 32.957-11.598 58.301-28.22 82.809-16.124 23.785-32.75 48.3-35.792 84.32m95.347 47.93c-51.957 0-76.906-7.875-103.32-16.215-4.36-1.379-8.863-2.8-13.531-4.2A16.324 16.324 0 0 1 0 340.415c0-52.707 23.242-86.98 41.914-114.52 15.082-22.246 24.191-36.601 23.664-53.023-22.488-18.445-35.703-46.09-35.703-75.387 0-26.472 10.43-51.242 29.371-69.742C78.18 9.246 103.196-.582 129.7.027c25.012.586 48.613 10.727 66.461 28.547 17.848 17.824 28.024 41.41 28.653 66.418.757 30.242-12.407 58.762-35.543 77.778-.055 17.359 10.722 33.05 23.996 52.378 18.968 27.622 42.578 61.989 42.578 115.266 0 7.207-4.73 13.563-11.633 15.633-4.988 1.496-9.758 3.015-14.367 4.484-25.703 8.196-49.98 15.93-101.36 15.93" style="stroke:none;fill-rule:nonzero;fill:#000;fill-opacity:1"/></g></svg>
